svg/300/outlined/domain_verification.svg

<svg xmlns="http://www.w3.org/2000/svg" width="48" height="48" viewBox="0 -960 960 960"><path d="M157.694-180.001q-23.529 0-40.611-17.082-17.082-17.082-17.082-40.611v-484.612q0-23.529 17.082-40.611 17.082-17.082 40.611-17.082h644.612q23.529 0 40.611 17.082 17.082 17.082 17.082 40.611v484.612q0 23.529-17.082 40.611-17.082 17.082-40.611 17.082H157.694Zm0-45.384h644.612q4.616 0 8.463-3.846 3.846-3.847 3.846-8.463v-414.075h-669.23v414.075q0 4.616 3.846 8.463 3.847 3.846 8.463 3.846ZM438-322.77 320.001-440.769l33.23-33.23L438-389.23l168.769-168.769 33.23 33.23L438-322.77Zm-280.306 97.385h-12.309v-509.23h12.309q-4.616 0-8.463 3.846-3.846 3.847-3.846 8.463v484.612q0 4.616 3.846 8.463 3.847 3.846 8.463 3.846Z"/></svg>

<svg xmlns="http://www.w3.org/2000/svg" width="48" height="48" viewBox="0 -960 960 960"><path d="M157.69-180q-23.53 0-40.61-17.08T100-237.69v-484.62q0-23.53 17.08-40.61T157.69-780h644.62q23.53 0 40.61 17.08T860-722.31v484.62q0 23.53-17.08 40.61T802.31-180H157.69Zm0-45.39h644.62q4.61 0 8.46-3.84 3.84-3.85 3.84-8.46v-414.08H145.39v414.08q0 4.61 3.84 8.46 3.85 3.84 8.46 3.84ZM438-322.77l-118-118L353.23-474 438-389.23 606.77-558 640-524.77l-202 202Zm-280.31 97.38h-12.3v-509.22h12.3q-4.61 0-8.46 3.84-3.84 3.85-3.84 8.46v484.62q0 4.61 3.84 8.46 3.85 3.84 8.46 3.84Z"/></svg>
